X: 564
P: Longways for as many as will
M: 9/4
L: 1/8
K: Gmix
a2 |\
g4f2 e4d2 c4a2 | g3a fg d3f de c2d2e2 |
f2F2F2 AB cB AG A4F2 | g2G2G2 Bc dc BA B4G2 |\
e3f ga g2e2d2 c3d ec | e3f ga g2e2 c2 f3g ag |\
a2b2c'2 c2A2F2 A2B2c2 | d3e fd B3AB2 G3A BG |]

